upload-box-outline.svg

<svg  viewBox="0 0 24 24" fill="currentColor"><path  d="M8 17V15H16V17H8M16 11L12 7L8 11H10.5V14H13.5V11H16M5 3H19C20.11 3 21 3.9 21 5V19C21 20.11 20.11 21 19 21H5C3.9 21 3 20.11 3 19V5C3 3.9 3.9 3 5 3M5 5V19H19V5H5Z"/></svg>

<svg fill="currentColor" viewBox="0 0 24 24"><path d="M8 17v-2h8v2zm8-6-4-4-4 4h2.5v3h3v-3zM5 3h14a2 2 0 0 1 2 2v14c0 1.11-.89 2-2 2H5a2 2 0 0 1-2-2V5c0-1.1.9-2 2-2m0 2v14h14V5z"/></svg>
